public/avatar/hat/126.svg

<svg xmlns:xlink="http://www.w3.org/1999/xlink" height="92.9" width="100.7" xmlns="http://www.w3.org/2000/svg"><use height="24" transform="translate(16.5 47.15)" width="43.95" xlink:href="#a"/><defs><g id="a"><path d="M9.95 4.7q3.3 1.5 3.3 2.8 0 1.25-1.45 1.25l-2.95-1.7Q6 5.35-.75 5.35l-3.45.1-.45.4-2 1.25-1.5 1.5-.05.05-.15 1.3q-.35 1.55-2.5 3.6-2 1.85-2.75 1.85-1.25 0-1.25-1.35 0-.7.85-1.3l1.8-1.6 1-1.55q-.9-.2-.8-1.35 0-1.5 1.2-2.55l-.3.95Q-11 7.9-9.8 7.9q.6 0 1.85-1.25l1.2-1.3 1.1-.5L2.1 4.6h3.95l2.5.3 1.4-.2M-7.8 2.9l-.05-.5Q-7.85 1-4.8 1h.5q-.55.35-.45 1.25-1.65-.1-3.05.65" fill="#725b8a" fill-opacity=".263" fill-rule="evenodd" transform="translate(22.15 2.6)"/><path d="M-10.8 5.7q.4-.8 1.4-1.7l1.6-1.1q1.4-.75 3.05-.65-.1-.9.45-1.25l1.15-.25q4.75 0 6 1.25l6.75.45q1.05.25 1.05 1.2 0 .75-.7 1.05l-1.4.2-2.5-.3H2.1l-7.75.25-1.1.5-1.2 1.3Q-9.2 7.9-9.8 7.9q-1.2 0-1.3-1.25l.3-.95" fill="#493e5b" fill-opacity=".424" fill-rule="evenodd" transform="translate(22.15 2.6)"/><path d="m-3.7-1.95 2.5.6Q-.7 2.5-3.4 3.1q-2.65.55-4.55 1.8-1.8 1.2-1.9 2.3-.15 1.5-3.25 5.6-1.65 2.15-.3 6.4l-1.5-.4q-.15 1.2-1.9 1.75-2.05.65-3.45-.9-1.2-1.3-1.3-3.25-.05-2.05 1.7-3.2 1.35-.85 2.4-.75-.85-.15-1.6-1.2-1.05-1.4-.1-2.9.95-1.55 2.45-1.25 1.3.25 1.4 1 .65-.5 2.6-4Q-10.8.75-8.5-.95q1.9-1.35 4.8-1" fill="#5e5f60" fill-rule="evenodd" transform="translate(22.15 2.6)"/><path d="M5.85 23q1.25-.6 1.4-1.6l1.5.4q-1.35-4.25.3-6.4 3.1-4.1 3.25-5.6.1-1.1 1.9-2.3 1.9-1.25 4.55-1.8 2.5-.55 2.25-3.85" fill="none" stroke="#4b4b4d" stroke-linecap="round" stroke-linejoin="round" stroke-width="2"/><path d="m21 1.85-.05-.6" fill="none" stroke="#000" stroke-linecap="round" stroke-linejoin="round" stroke-width="2"/><path d="M20.95 1.25 20.2 1 18.45.65q-2.9-.35-4.8 1-2.3 1.7-4.2 5.05l-1.4 2.4-1.2 1.6q-.1-.6-1-.9l-.4-.1Q3.95 9.4 3 10.95l-.45 1.2q-.05.85.55 1.7.75 1.05 1.6 1.2-1.05-.1-2.4.75Q.55 16.95.6 19q.1 1.95 1.3 3.25 1.4 1.55 3.45.9l.5-.15Z" fill="none" stroke="#000" stroke-linecap="round" stroke-linejoin="round" stroke-width="1.2"/><path d="M-7.95-.7q1.9-1.35 4.75-1l2.5.6Q0 3.1-2.75 3.7q-6.7 1.4-6.85 3.7-.15 1.25-2.75 4.75-.8 1-1.15 2.8-.5 2.5.55 4.8l-1.4-.4q-.45.5-2.2 1.1-2.05.65-3.3-.55-1.1-1.1-1.15-2.95-.1-2.05 1.65-3.2 1.3-.85 2.4-.8-.85-.15-1.6-1.2-1.05-1.35-.1-2.85.95-1.55 2.45-1.25 1.3.25 1.4 1 .65-.5 2.6-4.15Q-10.3 1-7.95-.7" fill="#646567" fill-rule="evenodd" transform="translate(22.15 2.6)"/><path d="M8.05-.95Q10.4.75 12.3 4.1q2 3.45 2.65 4 .05-.75 1.4-1 1.5-.3 2.45 1.25.95 1.5-.1 2.9-.75 1.05-1.6 1.2 1.05-.1 2.4.75 1.75 1.15 1.7 3.2-.05 1.9-1.3 3.25-1.4 1.55-3.45.9-1.1-.35-1.65-1.1l-.3-.65-1.5.4q1.35-4.3-.45-6.55-2.2-2.7-2.4-5.35-.1-1-2.6-2.3-2.5-1.35-5.25-1.9Q.6 2.75.35.65l.1-2 2.65-.6q3.05-.35 4.95 1" fill="#5e5f60" fill-rule="evenodd" transform="translate(22.15 2.6)"/><path d="m37.85 22.85-.9-.8-.3-.65-1.5.4q1.35-4.3-.45-6.55-2.2-2.7-2.4-5.35-.1-1-2.6-2.3-2.5-1.35-5.25-1.9-1.7-.35-1.95-2.45" fill="none" stroke="#4b4b4d" stroke-linecap="round" stroke-linejoin="round" stroke-width="2"/><path d="m22.5 3.25.1-2" fill="none" stroke="#000" stroke-linecap="round" stroke-linejoin="round" stroke-width="2"/><path d="m22.6 1.25 2.65-.6q3.05-.35 4.95 1 2.35 1.7 4.25 5.05l2.4 3.75.25.25q.05-.75 1.4-1 1.5-.3 2.45 1.25l.3.6q.45 1.2-.4 2.3-.75 1.05-1.6 1.2 1.05-.1 2.4.75l1.05.95q.7.95.65 2.25-.05 1.9-1.3 3.25-1.4 1.55-3.45.9l-.75-.3Z" fill="none" stroke="#000" stroke-linecap="round" stroke-linejoin="round" stroke-width="1.2"/><path d="M7.55-.7Q9.9 1 11.8 4.5q1.95 3.65 2.6 4.15.1-.75 1.45-1 1.5-.3 2.45 1.25.95 1.5-.1 2.85-.8 1.05-1.65 1.2 1.15-.05 2.45.8 1.75 1.15 1.7 3.2-.05 1.85-1.15 2.95-1.3 1.2-3.35.55l-2.2-1.1-1.45.4q1.95-4-.35-7.05-1.8-2.25-2.1-4.9-.1-1-2.75-2.25Q4.85 4.3 2 3.7.25 3.35-.1 1.1v-2.2l2.7-.6q3.05-.35 4.95 1" fill="#646567" fill-rule="evenodd" transform="translate(22.15 2.6)"/><path d="m1.3-.05-.75-.8 4 1.35q4.15 1.2 6.55 5 .35.6 1.5 5.55-.75-2.95-1.85-4.85-2-3.65-7.25-5Q2.25.85 1.3-.05M14.9 9.6q1.2-1.95 2.25-.35.6.8-.1 1.7-1.1 1.45-2.45.35.9.4 1.7-.2.4-.35.4-.9 0-.45-.55-.55-.55-.05-.7.35-.2.45.65.4-.2.55-.95.2-.7-.35-.25-1m2.95.35.15.75q.1.8-.45 1.3-1.5 1.35-2.6 0 1.05.75 2.35-.3l.55-1.75M2.1 3l-1-.6Q.75 2.35.65.55.8 2.05 4.95 3q3.3.8 5.5 3.85Q8.2 4.2 4.8 3.8 3.35 3.6 2.1 3m15.45 13.75q-.35.75-1.3.3-.95-.45-.4-1.35 1.65-2.6 3.1-.5.75 1.1-.15 2.3-1.5 2-3.3.45 1.25.6 2.25-.25.6-.45.6-1.2-.05-.65-.75-.75-.75-.05-.95.45-.3.65.9.55m2.35.6q0 .95-.65 1.75-.75.85-2.3.9-1.45 0-2.15-.75-.55-.55-.85-3.35l-.6-2.7.9 2.2q.95 3.3 1.45 3.55 1.55.7 3.1-.35l1-2.1.1.85M-1.85 2.4Q-3 3.5-5.25 3.8q-3.35.4-5.6 3.05Q-8.65 3.8-5.4 3q3.85-.95 4-2.45-.1 1.8-.45 1.85M-15.8 10q-.2-.4-.7-.35-.55.1-.55.55-.1.5.4.9.8.65 1.65.2-1.25 1.1-2.4-.35-.65-.9-.1-1.7 1-1.55 2.25.35.4.65-.3 1t-.95-.2q.9.05.7-.4m-2.1 2q-.55-.5-.45-1.3l.15-.75.55 1.75q1.3 1.05 2.35.3-1.2 1.35-2.6 0m4.7-.1q1.35-5.75 1.7-6.4 2.25-3.75 6.5-5 2.65-.75 3.7-1.35Q-2 .65-4 1.2q-5.1 1.35-7.15 5l-2.05 5.7m-4.7 3.85q-.75.1-.8.75 0 .7.6 1.2 1 .85 2.25.25-1.75 1.55-3.3-.45-.9-1.2-.15-2.3 1.45-2.05 3.1.5.55.9-.4 1.35-.95.45-1.3-.3 1.2.1.9-.55-.2-.5-.9-.45m3.25-.35.95-2.2-.6 2.7q-.45 2.85-.9 3.35-.65.75-2.1.75-1.55-.05-2.3-.9-.6-.8-.65-1.75l.1-.85 1 2.1q1.55 1.05 3.1.35.6-.3 1.4-3.55" fill="#868788" fill-rule="evenodd" transform="translate(22.15 2.6)"/></g></defs></svg>

<?xml version="1.0" encoding="UTF-8" standalone="no"?>
<svg xmlns:xlink="http://www.w3.org/1999/xlink" height="92.9px" width="100.7px" xmlns="http://www.w3.org/2000/svg">
  <g transform="matrix(1.0, 0.0, 0.0, 1.0, 38.65, 49.75)">
    <use height="24.0" transform="matrix(1.0, 0.0, 0.0, 1.0, -22.15, -2.6)" width="43.95" xlink:href="#shape0"/>
  </g>
  <defs>
    <g id="shape0" transform="matrix(1.0, 0.0, 0.0, 1.0, 22.15, 2.6)">
      <path d="M9.95 4.7 Q13.25 6.2 13.25 7.5 13.25 8.75 11.8 8.75 L8.85 7.05 Q6.0 5.35 -0.75 5.35 L-4.2 5.45 -4.65 5.85 -6.65 7.1 -8.15 8.6 -8.2 8.65 -8.35 9.95 Q-8.7 11.5 -10.85 13.55 -12.85 15.4 -13.6 15.4 -14.85 15.4 -14.85 14.05 -14.85 13.35 -14.0 12.75 L-12.2 11.15 -11.2 9.6 Q-12.1 9.4 -12.0 8.25 -12.0 6.75 -10.8 5.7 L-11.1 6.65 Q-11.0 7.9 -9.8 7.9 -9.2 7.9 -7.95 6.65 L-6.75 5.35 -5.65 4.85 2.1 4.6 2.2 4.6 6.05 4.6 8.55 4.9 9.95 4.7 M-7.8 2.9 L-7.85 2.4 Q-7.85 1.0 -4.8 1.0 L-4.3 1.0 Q-4.85 1.35 -4.75 2.25 -6.4 2.15 -7.8 2.9" fill="#725b8a" fill-opacity="0.2627451" fill-rule="evenodd" stroke="none"/>
      <path d="M-10.8 5.7 Q-10.4 4.9 -9.4 4.0 L-7.8 2.9 Q-6.4 2.15 -4.75 2.25 -4.85 1.35 -4.3 1.0 L-3.15 0.75 Q1.6 0.75 2.85 2.0 L9.6 2.45 Q10.65 2.7 10.65 3.65 10.65 4.4 9.95 4.7 L8.55 4.9 6.05 4.6 2.2 4.6 2.1 4.6 -5.65 4.85 -6.75 5.35 -7.95 6.65 Q-9.2 7.9 -9.8 7.9 -11.0 7.9 -11.1 6.65 L-10.8 5.7" fill="#493e5b" fill-opacity="0.42352942" fill-rule="evenodd" stroke="none"/>
      <path d="M-3.7 -1.95 L-1.2 -1.35 Q-0.7 2.5 -3.4 3.1 -6.05 3.65 -7.95 4.9 -9.75 6.1 -9.85 7.2 -10.0 8.7 -13.1 12.8 -14.75 14.95 -13.4 19.2 L-14.9 18.8 Q-15.05 20.0 -16.8 20.55 -18.85 21.2 -20.25 19.65 -21.45 18.35 -21.55 16.4 -21.6 14.35 -19.85 13.2 -18.5 12.35 -17.45 12.45 -18.3 12.3 -19.05 11.25 -20.1 9.85 -19.15 8.35 -18.2 6.8 -16.7 7.1 -15.4 7.35 -15.3 8.1 -14.65 7.6 -12.7 4.1 -10.8 0.75 -8.5 -0.95 -6.6 -2.3 -3.7 -1.95" fill="#5e5f60" fill-rule="evenodd" stroke="none"/>
      <path d="M-16.3 20.4 Q-15.05 19.8 -14.9 18.8 L-13.4 19.2 Q-14.75 14.95 -13.1 12.8 -10.0 8.7 -9.85 7.2 -9.75 6.1 -7.95 4.9 -6.05 3.65 -3.4 3.1 -0.9 2.55 -1.15 -0.75" fill="none" stroke="#4b4b4d" stroke-linecap="round" stroke-linejoin="round" stroke-width="2.0"/>
      <path d="M-1.15 -0.75 L-1.2 -1.35" fill="none" stroke="#000000" stroke-linecap="round" stroke-linejoin="round" stroke-width="2.0"/>
      <path d="M-1.2 -1.35 L-1.95 -1.6 -3.7 -1.95 Q-6.6 -2.3 -8.5 -0.95 -10.8 0.75 -12.7 4.1 L-14.1 6.5 -15.3 8.1 Q-15.4 7.5 -16.3 7.2 L-16.7 7.1 Q-18.2 6.8 -19.15 8.35 L-19.6 9.55 Q-19.65 10.4 -19.05 11.25 -18.3 12.3 -17.45 12.45 -18.5 12.35 -19.85 13.2 -21.6 14.35 -21.55 16.4 -21.45 18.35 -20.25 19.65 -18.85 21.2 -16.8 20.55 L-16.3 20.4 Z" fill="none" stroke="#000000" stroke-linecap="round" stroke-linejoin="round" stroke-width="1.2000000000000002"/>
      <path d="M-7.95 -0.7 Q-6.05 -2.05 -3.2 -1.7 L-0.7 -1.1 Q0.0 3.1 -2.75 3.7 -9.45 5.1 -9.6 7.4 -9.75 8.65 -12.35 12.15 -13.15 13.15 -13.5 14.95 -14.0 17.45 -12.95 19.75 L-14.35 19.35 Q-14.8 19.85 -16.55 20.45 -18.6 21.1 -19.85 19.9 -20.95 18.8 -21.0 16.95 -21.1 14.9 -19.35 13.75 -18.05 12.9 -16.95 12.95 -17.8 12.8 -18.55 11.75 -19.6 10.4 -18.65 8.9 -17.7 7.35 -16.2 7.65 -14.9 7.9 -14.8 8.65 -14.15 8.15 -12.2 4.5 -10.3 1.0 -7.95 -0.7" fill="#646567" fill-rule="evenodd" stroke="none"/>
      <path d="M8.05 -0.95 Q10.4 0.75 12.3 4.1 14.3 7.55 14.95 8.1 15.0 7.35 16.35 7.1 17.85 6.8 18.8 8.35 19.75 9.85 18.7 11.25 17.95 12.3 17.1 12.45 18.15 12.35 19.5 13.2 21.25 14.35 21.2 16.4 21.15 18.3 19.9 19.65 18.5 21.2 16.45 20.55 15.35 20.2 14.8 19.45 L14.5 18.8 13.0 19.2 Q14.35 14.9 12.55 12.65 10.35 9.95 10.15 7.3 10.05 6.3 7.55 5.0 5.05 3.65 2.3 3.1 0.6 2.75 0.35 0.65 L0.45 -1.35 3.1 -1.95 Q6.15 -2.3 8.05 -0.95" fill="#5e5f60" fill-rule="evenodd" stroke="none"/>
      <path d="M15.7 20.25 L14.8 19.45 14.5 18.8 13.0 19.2 Q14.35 14.9 12.55 12.65 10.35 9.95 10.15 7.3 10.05 6.3 7.55 5.0 5.05 3.65 2.3 3.1 0.6 2.75 0.35 0.65" fill="none" stroke="#4b4b4d" stroke-linecap="round" stroke-linejoin="round" stroke-width="2.0"/>
      <path d="M0.35 0.65 L0.45 -1.35" fill="none" stroke="#000000" stroke-linecap="round" stroke-linejoin="round" stroke-width="2.0"/>
      <path d="M0.45 -1.35 L3.1 -1.95 Q6.15 -2.3 8.05 -0.95 10.4 0.75 12.3 4.1 L14.7 7.85 14.95 8.1 Q15.0 7.35 16.35 7.1 17.85 6.8 18.8 8.35 L19.1 8.95 Q19.55 10.15 18.7 11.25 17.95 12.3 17.1 12.45 18.15 12.35 19.5 13.2 L20.55 14.15 Q21.25 15.1 21.2 16.4 21.15 18.3 19.9 19.65 18.5 21.2 16.45 20.55 L15.7 20.25 Z" fill="none" stroke="#000000" stroke-linecap="round" stroke-linejoin="round" stroke-width="1.2000000000000002"/>
      <path d="M7.55 -0.7 Q9.9 1.0 11.8 4.5 13.75 8.15 14.4 8.65 14.5 7.9 15.85 7.65 17.35 7.35 18.3 8.9 19.25 10.4 18.2 11.75 17.4 12.8 16.55 12.95 17.7 12.9 19.0 13.75 20.75 14.9 20.7 16.95 20.65 18.8 19.55 19.9 18.25 21.1 16.2 20.45 L14.0 19.35 12.55 19.75 Q14.5 15.75 12.2 12.7 10.4 10.45 10.1 7.8 10.0 6.8 7.35 5.55 4.85 4.3 2.0 3.7 0.25 3.35 -0.1 1.1 L-0.1 -1.1 2.6 -1.7 Q5.65 -2.05 7.55 -0.7" fill="#646567" fill-rule="evenodd" stroke="none"/>
      <path d="M1.3 -0.05 L0.55 -0.85 4.55 0.5 Q8.7 1.7 11.1 5.5 11.45 6.1 12.6 11.05 11.85 8.1 10.75 6.2 8.75 2.55 3.5 1.2 2.25 0.85 1.3 -0.05 M14.9 9.6 Q16.1 7.65 17.15 9.25 17.75 10.05 17.05 10.95 15.95 12.4 14.6 11.3 15.5 11.7 16.3 11.1 16.7 10.75 16.7 10.2 16.7 9.75 16.15 9.65 15.6 9.6 15.45 10.0 15.25 10.45 16.1 10.4 15.9 10.95 15.15 10.6 14.45 10.25 14.9 9.6 M17.85 9.95 L18.0 10.7 Q18.1 11.5 17.55 12.0 16.05 13.35 14.95 12.0 16.0 12.75 17.3 11.7 L17.85 9.95 M2.1 3.0 L1.1 2.4 Q0.75 2.35 0.65 0.55 0.8 2.05 4.95 3.0 8.25 3.8 10.45 6.85 8.2 4.2 4.8 3.8 3.35 3.6 2.1 3.0 M17.55 16.75 Q17.2 17.5 16.25 17.05 15.3 16.6 15.85 15.7 17.5 13.1 18.95 15.2 19.7 16.3 18.8 17.5 17.3 19.5 15.5 17.95 16.75 18.55 17.75 17.7 18.35 17.25 18.35 16.5 18.3 15.85 17.6 15.75 16.85 15.7 16.65 16.2 16.35 16.85 17.55 16.75 M19.9 17.35 Q19.9 18.3 19.25 19.1 18.5 19.95 16.95 20.0 15.5 20.0 14.8 19.25 14.25 18.7 13.95 15.9 L13.35 13.2 14.25 15.4 Q15.2 18.7 15.7 18.95 17.25 19.65 18.8 18.6 L19.8 16.5 19.9 17.35 M-1.85 2.4 Q-3.0 3.5 -5.25 3.8 -8.6 4.2 -10.85 6.85 -8.65 3.8 -5.4 3.0 -1.55 2.05 -1.4 0.55 -1.5 2.35 -1.85 2.4 M-15.8 10.0 Q-16.0 9.6 -16.5 9.65 -17.05 9.75 -17.05 10.2 -17.15 10.7 -16.65 11.1 -15.85 11.75 -15.0 11.3 -16.25 12.4 -17.4 10.95 -18.05 10.05 -17.5 9.25 -16.5 7.7 -15.25 9.6 -14.85 10.25 -15.55 10.6 -16.25 10.95 -16.5 10.4 -15.6 10.45 -15.8 10.0 M-17.9 12.0 Q-18.45 11.5 -18.35 10.7 L-18.2 9.95 -17.65 11.7 Q-16.35 12.75 -15.3 12.0 -16.5 13.35 -17.9 12.0 M-13.2 11.9 Q-11.85 6.15 -11.5 5.5 -9.25 1.75 -5.0 0.5 -2.35 -0.25 -1.3 -0.85 -2.0 0.65 -4.0 1.2 -9.1 2.55 -11.15 6.2 L-13.2 11.9 M-17.9 15.75 Q-18.65 15.85 -18.7 16.5 -18.7 17.2 -18.1 17.7 -17.1 18.55 -15.85 17.95 -17.6 19.5 -19.15 17.5 -20.05 16.3 -19.3 15.2 -17.85 13.15 -16.2 15.7 -15.65 16.6 -16.6 17.05 -17.55 17.5 -17.9 16.75 -16.7 16.85 -17.0 16.2 -17.2 15.7 -17.9 15.75 M-14.65 15.4 L-13.7 13.2 -14.3 15.9 Q-14.75 18.75 -15.2 19.25 -15.85 20.0 -17.3 20.0 -18.85 19.95 -19.6 19.1 -20.2 18.3 -20.25 17.35 L-20.15 16.5 -19.15 18.6 Q-17.6 19.65 -16.05 18.95 -15.45 18.65 -14.65 15.4" fill="#868788" fill-rule="evenodd" stroke="none"/>
    </g>
  </defs>
</svg>
